build/img/cart-button-yellow.svg

<svg width="17" height="16" viewBox="0 0 17 16" fill="none" xmlns="http://www.w3.org/2000/svg">
<path d="M16.3015 2.91311H3.0096L2.81202 0.652847C2.77971 0.28322 2.47804 0 2.11666 0H0.69816C0.312576 0 0 0.320979 0 0.716927C0 1.11288 0.312576 1.43385 0.69816 1.43385H1.47837C1.90475 6.31176 0.802785 -6.29581 2.28136 10.6204C2.33834 11.2825 2.68672 12.0009 3.28687 12.4891C2.20482 13.9081 3.19349 16 4.95361 16C6.4145 16 7.44488 14.5038 6.9439 13.0868H10.765C10.2647 14.502 11.2928 16 12.7553 16C13.9224 16 14.872 15.0249 14.872 13.8264C14.872 12.628 13.9224 11.6529 12.7553 11.6529H4.95834C4.428 11.6529 3.96585 11.3243 3.76638 10.8456L14.9239 10.1723C15.2285 10.1539 15.4862 9.93446 15.5603 9.63048L16.9789 3.80391C17.0888 3.35211 16.7558 2.91311 16.3015 2.91311V2.91311ZM4.95361 14.5661C4.55646 14.5661 4.23331 14.2343 4.23331 13.8264C4.23331 13.4186 4.55646 13.0868 4.95361 13.0868C5.3508 13.0868 5.67395 13.4186 5.67395 13.8264C5.67395 14.2343 5.3508 14.5661 4.95361 14.5661ZM12.7553 14.5661C12.3581 14.5661 12.035 14.2343 12.035 13.8264C12.035 13.4186 12.3581 13.0868 12.7553 13.0868C13.1525 13.0868 13.4756 13.4186 13.4756 13.8264C13.4756 14.2343 13.1525 14.5661 12.7553 14.5661ZM14.33 8.77181L3.57844 9.42062L3.13494 4.34693H15.4073L14.33 8.77181Z" fill="#FBFF3D"/>
</svg>

<svg width="17" height="16" fill="none" xmlns="http://www.w3.org/2000/svg"><path d="M16.302 2.913H3.01L2.812.653A.706.706 0 002.117 0H.698A.708.708 0 000 .717c0 .396.313.717.698.717h.78l.803 9.186c.057.663.406 1.38 1.006 1.87C2.205 13.907 3.193 16 4.954 16c1.46 0 2.49-1.496 1.99-2.913h3.821c-.5 1.415.528 2.913 1.99 2.913 1.167 0 2.117-.975 2.117-2.174 0-1.198-.95-2.173-2.117-2.173H4.958c-.53 0-.992-.329-1.192-.807l11.158-.674a.703.703 0 00.636-.542l1.419-5.826c.11-.452-.223-.89-.677-.89zM4.954 14.566a.731.731 0 01-.72-.74c0-.407.322-.74.72-.74.397 0 .72.333.72.74 0 .408-.323.74-.72.74zm7.801 0a.731.731 0 01-.72-.74c0-.407.323-.74.72-.74.397 0 .72.333.72.74a.73.73 0 01-.72.74zm1.575-5.794L3.578 9.42l-.443-5.074h12.272L14.33 8.772z" fill="#FBFF3D"/></svg>
